dataset/enpass/icon.svg

<?xml version="1.0" encoding="UTF-8" standalone="no"?>
<!-- Generator: Adobe Illustrator 26.0.2, SVG Export Plug-In . SVG Version: 6.00 Build 0)  -->

<svg
   version="1.0"
   id="Layer_1"
   x="0px"
   y="0px"
   viewBox="0 0 128 128"
   xml:space="preserve"
   width="128"
   height="128"
   xmlns:xlink="http://www.w3.org/1999/xlink"
   xmlns="http://www.w3.org/2000/svg"
   xmlns:svg="http://www.w3.org/2000/svg"><defs
   id="defs76"><linearGradient
     id="linearGradient1097"><stop
       style="stop-color:#051d42;stop-opacity:1;"
       offset="0"
       id="stop1093" /><stop
       style="stop-color:#1367e5;stop-opacity:1;"
       offset="0.41133887"
       id="stop1101" /><stop
       style="stop-color:#051d42;stop-opacity:1;"
       offset="0.80834073"
       id="stop1103" /><stop
       style="stop-color:#115ccf;stop-opacity:1;"
       offset="1"
       id="stop1107" /></linearGradient><linearGradient
     xlink:href="#linearGradient1097"
     id="linearGradient1099"
     x1="9.9999966"
     y1="67.999999"
     x2="118"
     y2="67.999999"
     gradientUnits="userSpaceOnUse"
     gradientTransform="matrix(1.1111111,0,0,1.0925926,-7.1111091,-8.296294)" /></defs>
<style
   type="text/css"
   id="style2">
	.st0{fill:url(#SVGID_1_);}
	.st1{fill:url(#SVGID_00000062171159965967627490000013605884846004172698_);}
	.st2{fill:url(#SVGID-2_00000085966066984138215510000013018799571900533434_);}
	.st3{clip-path:url(#SVGID_00000023257072852279316340000004281102206337855156_);}
	.st4{fill:url(#SVGID_00000177446033621631838710000001370584907163434138_);}
	.st5{clip-path:url(#SVGID_00000136385553608229244970000014654043435100792964_);}
	.st6{fill:url(#SVGID_00000126306410582640054500000000964390405037519506_);}
	.st7{fill:url(#SVGID_00000109020757643166282930000006684795936706346369_);}
</style>
<radialGradient
   id="SVGID_1_"
   cx="514.5"
   cy="477.5"
   r="496.5"
   gradientTransform="matrix(1,0,0,-1,-18,974)"
   gradientUnits="userSpaceOnUse">
	<stop
   offset="0.9134"
   style="stop-color:#000000"
   id="stop4" />
	<stop
   offset="1"
   style="stop-color:#000000;stop-opacity:0"
   id="stop6" />
</radialGradient>

<radialGradient
   id="SVGID_00000163033830155146975860000008434547654242457221_"
   cx="512.05908"
   cy="481.87881"
   r="486.27271"
   gradientTransform="matrix(0.11104257,0,0,-0.11104257,7.1350999,117.51141)"
   gradientUnits="userSpaceOnUse">
	<stop
   offset="0.99"
   style="stop-color:#FFFFFF"
   id="stop11" />
	<stop
   offset="0.9951"
   style="stop-color:#FDFDFD"
   id="stop13" />
	<stop
   offset="0.9969"
   style="stop-color:#F6F6F6"
   id="stop15" />
	<stop
   offset="0.9982"
   style="stop-color:#EBEBEB"
   id="stop17" />
	<stop
   offset="0.9992"
   style="stop-color:#DADADA"
   id="stop19" />
	<stop
   offset="1"
   style="stop-color:#C7C7C7"
   id="stop21" />
</radialGradient>

<radialGradient
   id="SVGID-2_00000052072577768947982130000002178866272689676469_"
   cx="512.06152"
   cy="481.87881"
   r="444.12241"
   gradientTransform="matrix(1,0,0,-1,-18,974)"
   gradientUnits="userSpaceOnUse">
	<stop
   offset="0.99"
   style="stop-color:#000000;stop-opacity:0.5"
   id="stop26" />
	<stop
   offset="1"
   style="stop-color:#000000;stop-opacity:0"
   id="stop28" />
</radialGradient>



<radialGradient
   id="SVGID_00000092427181212153090570000016417065628950216588_"
   cx="578.89008"
   cy="482.3703"
   r="353.94269"
   gradientTransform="matrix(0.11104257,0,0,-0.1218248,7.1350999,118.45626)"
   gradientUnits="userSpaceOnUse">
	<stop
   offset="0"
   style="stop-color:#C2C0C2"
   id="stop66" />
	<stop
   offset="1"
   style="stop-color:#EBEBEB"
   id="stop68" />
</radialGradient>

		
	
		
	
<path
   style="fill:url(#linearGradient1099);fill-opacity:1;stroke:none;stroke-width:0.122349"
   d="M 63.999998,6.999999 C 97.140031,6.999999 124,33.412297 124,66 124,98.5877 97.127701,125 63.999998,125 30.872299,125 3.9999979,98.5877 3.9999979,66 3.9999979,33.412296 30.859962,6.999998 63.999998,6.999998"
   id="path24-2" /><path
   style="fill:#0d47a1;fill-opacity:1;stroke-width:0.122349"
   d="M 64.000001,2.9999994 C 97.140039,2.9999994 124,29.412297 124,62.000001 124,94.587706 97.127701,121 64.000001,121 30.872302,121 3.9999997,94.587706 3.9999997,62.000001 3.9999997,29.412297 30.859964,2.9999994 64.000001,2.9999994"
   id="path24" /><path
   id="enpass_logo_animate"
   class="a"
   d="m 64.067011,30.93053 c 7.974458,0 15.948918,-0.02316 23.92534,0.01156 a 11.386474,11.1967 0 0 1 8.781328,3.81074 11.029175,10.845356 0 0 1 2.781833,6.696784 28.631095,28.153911 0 0 1 -0.824539,6.756631 c -1.058154,5.984444 -2.159503,11.957306 -3.241219,17.934028 -0.932511,5.14662 -1.825761,10.300962 -2.807355,15.443723 A 15.067448,14.816324 0 0 1 80.251512,92.940925 18.742531,18.430156 0 0 1 78.05078,93.070264 q -13.981805,0.01355 -27.963612,0 A 15.010515,14.76034 0 0 1 35.335793,80.881299 Q 32.536292,65.476184 29.689673,50.08072 c -0.373006,-2.032779 -0.785276,-4.053977 -1.077789,-6.1022 a 11.247089,11.059637 0 0 1 9.030653,-12.775822 14.824013,14.576947 0 0 1 2.878029,-0.258683 q 11.773223,-0.03282 23.546445,-0.01355 z m -6.327345,42.470242 v 0 c 0,2.048226 0,4.096449 0,6.146603 a 3.4669854,3.4092024 0 0 0 3.616185,3.555919 c 1.725641,0 3.451281,0 5.176922,0 a 3.4846541,3.4265766 0 0 0 3.802689,-3.743172 c 0,-4.013439 0,-8.028805 -0.01956,-12.042245 a 1.1406108,1.1216006 0 0 1 0.645891,-1.121601 13.082667,12.864622 0 0 0 5.972011,-14.381968 13.394812,13.171565 0 0 0 -16.268919,-9.225697 12.47408,12.266179 0 0 0 -8.99139,7.285578 13.883648,13.652254 0 0 0 5.59508,16.41861 0.85791199,0.84361347 0 0 1 0.484907,0.835892 c -0.02552,2.096484 -0.01378,4.185248 -0.01378,6.275944 z"
   style="fill:#ffffff;stroke-width:1.94676" /></svg>

<svg xmlns="http://www.w3.org/2000/svg" xmlns:xlink="http://www.w3.org/1999/xlink" xml:space="preserve" width="128" height="128" viewBox="0 0 128 128"><defs><linearGradient id="a"><stop offset="0" style="stop-color:#051d42;stop-opacity:1"/><stop offset=".411" style="stop-color:#1367e5;stop-opacity:1"/><stop offset=".808" style="stop-color:#051d42;stop-opacity:1"/><stop offset="1" style="stop-color:#115ccf;stop-opacity:1"/></linearGradient><linearGradient xlink:href="#a" id="b" x1="10" x2="118" y1="68" y2="68" gradientTransform="matrix(1.11111 0 0 1.0926 -7.111 -8.296)" gradientUnits="userSpaceOnUse"/></defs><path d="M64 7c33.14 0 60 26.412 60 59s-26.872 59-60 59S4 98.588 4 66 30.86 7 64 7" style="fill:url(#b);fill-opacity:1;stroke:none;stroke-width:.122349"/><path d="M64 3c33.14 0 60 26.412 60 59s-26.872 59-60 59S4 94.588 4 62 30.86 3 64 3" style="fill:#0d47a1;fill-opacity:1;stroke-width:.122349"/><path d="M64.067 30.93c7.974 0 15.949-.023 23.925.012a11.386 11.197 0 0 1 8.782 3.81 11.03 10.845 0 0 1 2.782 6.698 28.631 28.154 0 0 1-.825 6.756c-1.058 5.985-2.16 11.958-3.241 17.934-.933 5.147-1.826 10.301-2.808 15.444a15.067 14.816 0 0 1-12.43 11.357 18.743 18.43 0 0 1-2.201.13q-13.982.013-27.964 0a15.01 14.76 0 0 1-14.751-12.19q-2.8-15.405-5.646-30.8c-.373-2.033-.786-4.054-1.078-6.102a11.247 11.06 0 0 1 9.03-12.776 14.824 14.577 0 0 1 2.879-.259q11.773-.033 23.546-.014M57.74 73.4v6.147a3.467 3.41 0 0 0 3.616 3.556h5.177a3.485 3.427 0 0 0 3.802-3.743c0-4.013 0-8.029-.02-12.042a1.14 1.122 0 0 1 .647-1.122 13.083 12.865 0 0 0 5.972-14.382 13.395 13.172 0 0 0-16.27-9.225 12.474 12.266 0 0 0-8.99 7.285 13.884 13.652 0 0 0 5.595 16.419.858.844 0 0 1 .484.836c-.025 2.096-.013 4.185-.013 6.276z" class="a" style="fill:#fff;stroke-width:1.94676"/></svg>
